X:9
T:Office of Ordnance. JJo8.009, The
%%VWML:JohnsonVol8-2184-p5-0
F:http://www.vwml.org/record/JohnsonVol8/2184/p5
Z:Transcribed by Simon Furey and Lewis Jones
Z:vmp.Simon Wilson 2013 www.village-music-project.org.uk
Z:Dance added by John Chambers 2017
M:C|
L:1/8
%Q:1/2=80
K:A
E |\
AA cB/A/B2Bd | cecA GBGE |\
AA cB/A/B2Bd | cdcBA3 :|\
|: B |\
ee gf/e/f2fa | gbge ^dfdB |
ee gf/e/f2fa | gagfe3f |\
edcBc2Ac | dcBA GBGE |\
AA cB/A/B2Bd | cdcBA3 :|
W: Swing right Arms once round and cast
W:off .| Set 3 sides and cast up to the
W:top :| Right hands across once roune
W:at top :||. Cross over and turn :||:
W:Right hands across once round at
W:Bottom .:||: Right hands and left
W:at top .:||:.
W:
T:Lilly. JJo8.010, The
B:J.Johnson Choice Collection Vol 8 1758
Z:vmp.Simon Wilson 2013 www.village-music-project.org.uk
Z:Dance added by John Chambers 2017
M:C|
L:1/8
%Q:1/2=90
K:D
|: A | dcdAB2AG | F2ED E/E/E EA | dcdAB2AG | EDEF D/D/DD :|
|: A | FDADF2FA | FDAD E/E/E EA | FDADF2FA | EDEF D/D/DD :|
|: A | dcdAB2de | f2ed e/e/e ea | gfedB2AF | EDEF D/D/DD :|
W: Cast off two Cu. .| Cross up two Cu.
W:to the Top :| 1st and 2d Cu. set and
W:change sides :||. the same back
W:again :||: Cross over and turn .:||:
W:Right hands and Left .:||:.
W:
